!!!COM: Music21
!!!OTL: barndance_Marig-Ar-Polanton
!!!OMV: barndance_Marig-Ar-Polanton
**kern
*clefG2
*k[b-e-]
*g:
*M4/4
=1
8d
=||
[2f
8fL]
8dJ
8cL
16B-L
[16dJJ
=
8dL]
[8B-J
4.B-]
8f
8gL
16fL
[16b-JJ
=
2.b-]
8.gL
16gJk
=
[2.f
8fL]
8dJ
=||
[2f
8fL]
8dJ
8cL
16B-L
[16dJJ
!!linebreak:original
=
8dL]
[8B-J
4.B-]
8f
8gL
16fL
[16b-JJ
=
2.b-]
8.gL
16gJk
=
[2.f
8fL]
8dJ
=||
[2e-
8e-L]
8dJ
8e-L
16fL
[16gJJ
=
8gL]
[8fJ
4.f]
8d
8cL
16B-L
[16dJJ
=
2.d]
4f
=
[2.c
8cL]
8dJ
!!linebreak:original
=
[2e-
8e-L]
8dJ
8e-L
16fL
[16gJJ
=
8gL]
[8fJ
4.f]
8d
8cL
16B-L
[16dJJ
=
2.d]
4c
=
[2.B-
8B-L]
8dJ
=
[2e-
8e-L]
8dJ
8e-L
16fL
[16gJJ
=
8gL]
[8fJ
4.f]
8d
8cL
16B-L
[16dJJ
=
2.d]
4f
!!linebreak:original
=
[2.c
8cL]
8dJ
=
[2e-
8e-L]
8dJ
8e-L
16fL
[16b-JJ
=
8b-L]
16gL
[16fJJ
4.f]
8d
8cL
16B-L
[16dJJ
=
2.d]
4c
=
[2.B-
8B-L]
8dJ
=
[8e-
8e-L]
16fL
16e-JJ
8d
[8e-
8e-L]
8fJ
8ryy
!!linebreak:original
=
8gL
[8f
8fJ]
4.d
8dL
8dJ
=
*M1/8
16B-LL
[16dJJ
=
*M4/4
2d_
8d]
8r
8r
8c
=
[1B-
=||
*M2/4
2B-]
=
*-
